!!! OTL: Berkowitz394
!!! Chapter: 1
!!! Section: III
!!! Page: 97
!!! Mode: 
!!! Encoder: DJB
**kern
*staff1
*I"Piano
=1-
*clefG2
*k[b-e-a-]
*c:
*M4/4
4r
4e-/
4.a-/
8f#/
=2
4g/
4d/
8r
8d/L
8g/
8e-/J
=3
4f/
4c/
8r
8c/L
8f/
8d/J
=4
4e-/
4cc\
8b-/L
8a-/
8g/
8f/J
=5
2e-/
4d/
8r
8g/
=6
4c/
4en/
4.a-/
8g/
=7
4g/
4f/
8r
8f/L
8dd/
8cc/J
=8
!!linebreak:original
4cc\
4bn\
4r
4cc\
=9
8b-/L
8a-/
8g/
8f/J
4e-/
8Bn/L
8d/J
=10
2c/
2r
==
*-
